X:200
T:Much ado about Nothing
M:6/8
L:1/8
B:Thompson's Compleat Collection of 200 Favourite Country Dances, vol. 1 (London, 1757)
Z:Transcribed and edited by Flynn Titford-Mock, 2007
Z:abc's:AK/Fiddler's Companion
K:G
G2G, G2G,|GAB cBA|G2G, G2G,|GBG AFD|G2G, G2G,|GAB cBA|BdB AFD|GDC B,A,G,:|
|:gdB G2B|eag fef|gdB G2d|Eed ^cBc|d2D d2D|def gfe|faf e^cA|dAG FED:|
|:"tr"gfg "tr"gfg|"tr"gfg dBG|"tr"gfg "tr"gfg|gbg afd|"tr"gfg "tr"gfg|"tr"gfg dBG|c2e B2d|ABG FED:|




